build/images/svgs/home_banner/Error.svg

<svg xmlns="http://www.w3.org/2000/svg" width="50" height="50" viewBox="0 0 50 50" style="fill: #fff; opacity:.2;">
    <path style="text-indent:0;text-align:start;line-height:normal;text-transform:none;block-progression:tb;-inkscape-font-specification:Bitstream Vera Sans" d="M 24.84375 3.4375 A 1.0001 1.0001 0 0 0 24.125 3.9375 L 0.125 45.5 A 1.0001 1.0001 0 0 0 1 47 L 49 47 A 1.0001 1.0001 0 0 0 49.875 45.5 L 25.875 3.9375 A 1.0001 1.0001 0 0 0 24.84375 3.4375 z M 25 6.4375 L 47.25 45 L 2.75 45 L 25 6.4375 z M 23.84375 18.90625 C 23.62875 18.90625 23.5 19.035 23.5 19.25 L 23.5 33.71875 C 23.5 33.93375 23.62775 34.09375 23.84375 34.09375 L 26.15625 34.09375 C 26.37125 34.09375 26.5 33.93375 26.5 33.71875 L 26.5 19.25 C 26.5 19.035 26.37125 18.90625 26.15625 18.90625 L 23.84375 18.90625 z M 23.625 36.96875 C 23.493938 37.019328 23.4375 37.15125 23.4375 37.3125 L 23.4375 39.9375 C 23.4375 40.1535 23.56625 40.28125 23.78125 40.28125 L 26.21875 40.28125 C 26.43375 40.28125 26.5625 40.1525 26.5625 39.9375 L 26.5625 37.3125 C 26.5625 37.0975 26.43475 36.96875 26.21875 36.96875 L 23.78125 36.96875 C 23.72775 36.96875 23.668688 36.951891 23.625 36.96875 z" color="#000" overflow="visible" enable-background="accumulate" font-family="Bitstream Vera Sans"/>
</svg>

<svg xmlns="http://www.w3.org/2000/svg" width="50" height="50" viewBox="0 0 50 50" fill="#fff" opacity=".2"><path style="text-indent:0;text-align:start;line-height:normal;text-transform:none;block-progression:tb;-inkscape-font-specification:Bitstream Vera Sans" d="M24.844 3.438a1 1 0 0 0-.719.5L.125 45.5A1 1 0 0 0 1 47h48a1 1 0 0 0 .875-1.5l-24-41.563a1 1 0 0 0-1.031-.5zm.156 3L47.25 45H2.75L25 6.437zm-1.156 12.468c-.215 0-.344.129-.344.344v14.469c0 .215.128.375.344.375h2.312c.215 0 .344-.16.344-.375V19.25c0-.215-.129-.344-.344-.344h-2.312zm-.219 18.063c-.131.05-.188.182-.188.343v2.626c0 .215.13.343.344.343h2.438c.215 0 .343-.128.343-.343v-2.626c0-.215-.127-.343-.343-.343H23.78c-.053 0-.112-.017-.156 0z" color="#000" overflow="visible" font-family="Bitstream Vera Sans"/></svg>
